X:1
T:Title
%%score { ( 1 3 ) | ( 2 4 ) }
L:1/8
M:6/4
K:Eb
V:1 treble nm="Grand Piano"
V:3 treble 
V:2 bass 
V:4 bass 
V:1
 z6 z4[Q:1/4=100] G2 | G3 F G2 F E3 G2 | [GB]3 [GB] [Ac]2 [GB]4 [GB]2 | %3
 [Ge]3 [Ge] [Ge]2 [Ac]3 [GB] [EG]2 |[M:5/4] [DB]2- [DB]2- [DB]6 |[M:1/4] [DA]2 | %6
[M:6/4] G3 F G2 F E3 G2 |[M:5/4] z2 z4 e4 |[M:1/4] c2 |[M:6/4] B3 G E2 [EG]3 [B,E] [DF]2 | %10
[M:5/4] [B,E]2- [B,E]2- [B,E]6 |[M:1/4] [GB]2 |[M:6/4] [GB]3 [Ac] [GB]2 [Ge]4 [GB]2 | %13
 [Ac]3 [GB] [EG]2 [GB]4 B2 | c3 d e2 [Ge]2 [EGB]2 [B,EG]2 | F6 z6 |[M:1/4] [B,DA]2 | %17
[M:6/4] G3 F G2 F E3 G2 |[M:5/4] [GB]3 [Ac] [GB]2 e2- [Ae]2 |[M:1/4] c2 | %20
[M:6/4] B3 G E2 [EG]3 [B,E] [DF]2 |[M:9/4] [B,E]12 z6 |] %22
V:2
 z6 z4 [E,B,E]2 | [E,B,E]3 [E,A,E] [E,B,E]2 [E,A,B,] [E,G,B,]3 [E,B,E]2 | %2
 [E,E]3 [E,B,] [E,E]2 [E,E]4 [E,B,]2 | [E,B,]3 [E,B,] [E,B,]2 [E,E]3 [E,E] [E,B,]2 | %4
[M:5/4] [B,,B,]2- [B,,B,]2- [B,,B,]6 |[M:1/4] [B,,B,]2 | %6
[M:6/4] [E,B,E]3 [E,A,E] [E,B,E]2 [E,A,B,] [E,G,B,]3 [E,B,E]2 | %7
[M:5/4] [E,E]3 [E,E] [E,_D]2 [E,D]2[K:treble] [A,C]2 |[M:1/4] [=A,E_G]2 | %9
[M:6/4] [B,EG]3 [B,E] [G,B,]2[K:bass] [B,,B,]3 [B,,G,] [B,,A,]2 | %10
[M:5/4] [E,G,]2- [E,G,]2- [E,G,]6 |[M:1/4] [E,E]2 |[M:6/4] [E,B,]3 [E,E] [E,B,]2 [E,B,]4 [E,E]2 | %13
 [E,E]3 [E,E] [E,B,]2 [E,E]4[K:treble] [G,B,E]2 | [A,E]3 [A,B,E] [A,CA]2[K:bass] [E,B,]2 E,2 E,2 | %15
 z6[K:treble] .B6 |[M:1/4][K:bass] B,,2 | %17
[M:6/4] [E,B,E]3 [E,A,E] [E,B,E]2 [E,A,B,] [E,G,B,]3 [E,B,E]2 | %18
[M:5/4] [E,E]3 [E,E] [E,_D]2 [E,D]2[K:treble] [A,C]2 |[M:1/4] [=A,E_G]2 | %20
[M:6/4] [B,EG]3 [B,E] [G,B,]2[K:bass] [B,,B,]3 [B,,G,] [B,,A,]2 |[M:9/4] [E,G,]12 z6 |] %22
V:3
 x12 | x12 | x12 | x12 |[M:5/4] x10 |[M:1/4] x2 |[M:6/4] x12 |[M:5/4] [GB]3 [Ac] [GB]2 G2 A2 | %8
[M:1/4] x2 |[M:6/4] x12 |[M:5/4] x10 |[M:1/4] x2 |[M:6/4] x12 | x12 | x12 | [B,D]12 |[M:1/4] x2 | %17
[M:6/4] x12 |[M:5/4] z2 z4 G2 z2 |[M:1/4] x2 |[M:6/4] x12 |[M:9/4] x18 |] %22
V:4
 x12 | x12 | x12 | x12 |[M:5/4] x10 |[M:1/4] x2 |[M:6/4] x12 |[M:5/4] x8[K:treble] x2 |[M:1/4] x2 | %9
[M:6/4] x6[K:bass] x6 |[M:5/4] x10 |[M:1/4] x2 |[M:6/4] x12 | x10[K:treble] x2 | x6[K:bass] x6 | %15
 B,,12[K:treble] |[M:1/4][K:bass] x2 |[M:6/4] x12 |[M:5/4] x8[K:treble] x2 |[M:1/4] x2 | %20
[M:6/4] x6[K:bass] x6 |[M:9/4] x18 |] %22

